X: 22393
T: Lad O'Beirne's Favourite
R: reel
M: 4/4
K: Dmajor
dF F2 AFEF|dFBF A2 Bc|dF F2 AFED|DBBA B3 c|
dF F2 AFEF|dFBF A2 Bc|dBcA BAFE|DBBA B3 c|
d2 fd edef|d2 fd fa a2|d2 fd edcA|BdcA BABc|
d2 fd edef|d2 fd fa a2|bfaf gfed|BdcA B3 c|

